flaticon/dialogue/chat-35.svg

<svg xmlns="http://www.w3.org/2000/svg" width="32" height="32" viewBox="0 0 24 24">
    <path d="M6.398438 8.199219C5.519531 8.199219 4.800781 8.917969 4.800781 9.800781 4.800781 10.683594 5.519531 11.398438 6.398438 11.398438 7.28125 11.398438 8 10.683594 8 9.800781 8 8.917969 7.28125 8.199219 6.398438 8.199219zM6.398438 10.601562C5.957031 10.601562 5.601562 10.242188 5.601562 9.800781 5.601562 9.359375 5.957031 9 6.398438 9 6.839844 9 7.199219 9.359375 7.199219 9.800781 7.199219 10.242188 6.839844 10.601562 6.398438 10.601562zM12 8.199219C11.117188 8.199219 10.398438 8.917969 10.398438 9.800781 10.398438 10.683594 11.117188 11.398438 12 11.398438 12.882812 11.398438 13.601562 10.683594 13.601562 9.800781 13.601562 8.917969 12.882812 8.199219 12 8.199219zM12 10.601562C11.558594 10.601562 11.199219 10.242188 11.199219 9.800781 11.199219 9.359375 11.558594 9 12 9 12.441406 9 12.800781 9.359375 12.800781 9.800781 12.800781 10.242188 12.441406 10.601562 12 10.601562zM17.601562 8.199219C16.71875 8.199219 16 8.917969 16 9.800781 16 10.683594 16.71875 11.398438 17.601562 11.398438 18.480469 11.398438 19.199219 10.683594 19.199219 9.800781 19.199219 8.917969 18.480469 8.199219 17.601562 8.199219zM17.601562 10.601562C17.160156 10.601562 16.800781 10.242188 16.800781 9.800781 16.800781 9.359375 17.160156 9 17.601562 9 18.042969 9 18.398438 9.359375 18.398438 9.800781 18.398438 10.242188 18.042969 10.601562 17.601562 10.601562zM17.601562 10.601562"/>
    <path d="M 21.601562 1 L 2.398438 1 C 1.097656 1 0 2.097656 0 3.398438 L 0 16.601562 C 0 17.902344 1.097656 19 2.398438 19 L 8.222656 19 L 11.703125 22.867188 C 11.777344 22.953125 11.886719 23 12 23 C 12.113281 23 12.222656 22.953125 12.296875 22.867188 L 15.777344 19 L 21.601562 19 C 22.902344 19 24 17.902344 24 16.601562 L 24 3.398438 C 24 2.097656 22.902344 1 21.601562 1 Z M 23.199219 16.601562 C 23.199219 17.46875 22.46875 18.199219 21.601562 18.199219 L 16.585938 18.199219 L 17.507812 17.285156 C 17.667969 17.128906 17.667969 16.875 17.511719 16.71875 C 17.359375 16.5625 17.105469 16.558594 16.945312 16.714844 L 15.34375 18.304688 C 15.332031 18.3125 15.3125 18.320312 15.304688 18.332031 L 12 22.003906 L 8.695312 18.332031 C 8.695312 18.328125 8.691406 18.328125 8.6875 18.324219 C 8.683594 18.324219 8.683594 18.320312 8.679688 18.316406 L 7.0625 16.714844 C 6.90625 16.558594 6.652344 16.5625 6.5 16.71875 C 6.34375 16.875 6.34375 17.128906 6.503906 17.285156 L 7.425781 18.199219 L 2.398438 18.199219 C 1.53125 18.199219 0.800781 17.46875 0.800781 16.601562 L 0.800781 3.398438 C 0.800781 2.53125 1.53125 1.800781 2.398438 1.800781 L 21.601562 1.800781 C 22.46875 1.800781 23.199219 2.53125 23.199219 3.398438 Z M 23.199219 16.601562"/>
</svg>

<svg xmlns="http://www.w3.org/2000/svg" width="32" height="32" viewBox="0 0 24 24">
    <path d="M6.398 8.2A1.6 1.6 0 1 0 8 9.801c0-.884-.719-1.603-1.602-1.603zm0 2.402a.799.799 0 0 1-.796-.801.799.799 0 1 1 1.597 0c0 .441-.36.8-.8.8zm0 0M12 8.2c-.883 0-1.602.718-1.602 1.6A1.6 1.6 0 0 0 12 11.399a1.6 1.6 0 0 0 1.602-1.597c0-.883-.72-1.602-1.602-1.602zm0 2.402A.802.802 0 0 1 12 9a.802.802 0 0 1 0 1.602zm0 0M17.602 8.2C16.719 8.2 16 8.917 16 9.8a1.6 1.6 0 0 0 3.2 0c0-.882-.72-1.6-1.598-1.6zm0 2.402a.802.802 0 0 1 0-1.602c.441 0 .796.36.796.8 0 .442-.355.802-.796.802zm0 0"/>
    <path d="M21.602 1H2.398C1.098 1 0 2.098 0 3.398v13.204C0 17.902 1.098 19 2.398 19h5.825l3.48 3.867A.391.391 0 0 0 12 23a.391.391 0 0 0 .297-.133L15.777 19h5.825c1.3 0 2.398-1.098 2.398-2.398V3.398C24 2.098 22.902 1 21.602 1zm1.597 15.602c0 .867-.73 1.597-1.597 1.597h-5.016l.922-.914a.4.4 0 0 0-.563-.57l-1.601 1.59c-.012.008-.031.015-.04.027L12 22.004l-3.305-3.672c0-.004-.004-.004-.008-.008-.003 0-.003-.004-.007-.008l-1.617-1.601a.396.396 0 0 0-.563.004.397.397 0 0 0 .004.566l.922.914H2.398c-.867 0-1.597-.73-1.597-1.597V3.398c0-.867.73-1.597 1.597-1.597h19.204c.867 0 1.597.73 1.597 1.597zm0 0"/>
</svg>
